X:2
T:Castle Kelly
M:4/4
L:1/8
R:Slow Reel
Z:Ed Wosik
K:ADor
A2 cA A2 cA| GGEG G2 EG| A2 cA AAcd| e>gdB (3cBA BG|
A2 cA A2 cA| GGEF G2 EG| A2 cA AAcd| e>ged (3cBA BG :|
|: age^c d2 ed| =cAGE G3 e| age^c d2 =cd| eaag abc'b|
age^c d2 ed| =cAGE G2 EG| A2 cA AAcd| e>ged (3cBA BG :|
